src/assets/navIcon/contact.svg

<svg width="24" height="24" viewBox="0 0 24 24" fill="none" xmlns="http://www.w3.org/2000/svg">
<path d="M19.95 21C17.8 21 15.7043 20.5207 13.663 19.562C11.621 18.604 9.81267 17.3373 8.238 15.762C6.66267 14.1873 5.396 12.379 4.438 10.337C3.47933 8.29567 3 6.2 3 4.05C3 3.75 3.1 3.5 3.3 3.3C3.5 3.1 3.75 3 4.05 3H8.1C8.33333 3 8.54167 3.075 8.725 3.225C8.90833 3.375 9.01667 3.56667 9.05 3.8L9.7 7.3C9.73333 7.53333 9.72933 7.74567 9.688 7.937C9.646 8.129 9.55 8.3 9.4 8.45L6.975 10.9C7.675 12.1 8.55433 13.225 9.613 14.275C10.671 15.325 11.8333 16.2333 13.1 17L15.45 14.65C15.6 14.5 15.796 14.3873 16.038 14.312C16.2793 14.2373 16.5167 14.2167 16.75 14.25L20.2 14.95C20.4333 15 20.625 15.1123 20.775 15.287C20.925 15.4623 21 15.6667 21 15.9V19.95C21 20.25 20.9 20.5 20.7 20.7C20.5 20.9 20.25 21 19.95 21ZM6.025 9L7.675 7.35L7.25 5H5.025C5.10833 5.68333 5.225 6.35833 5.375 7.025C5.525 7.69167 5.74167 8.35 6.025 9ZM14.975 17.95C15.625 18.2333 16.2877 18.4583 16.963 18.625C17.6377 18.7917 18.3167 18.9 19 18.95V16.75L16.65 16.275L14.975 17.95Z" fill="#F8F8F8"/>
</svg>

<svg width="24" height="24" fill="none" xmlns="http://www.w3.org/2000/svg"><path d="M19.95 21c-2.15 0-4.246-.48-6.287-1.438a19.045 19.045 0 0 1-5.425-3.8 19.045 19.045 0 0 1-3.8-5.425C3.479 8.296 3 6.2 3 4.05c0-.3.1-.55.3-.75.2-.2.45-.3.75-.3H8.1a.96.96 0 0 1 .625.225.88.88 0 0 1 .325.575l.65 3.5c.033.233.03.446-.012.637a1.027 1.027 0 0 1-.288.513L6.975 10.9c.7 1.2 1.58 2.325 2.638 3.375A18.626 18.626 0 0 0 13.1 17l2.35-2.35c.15-.15.346-.263.588-.338.241-.075.479-.095.712-.062l3.45.7c.233.05.425.162.575.337.15.175.225.38.225.613v4.05c0 .3-.1.55-.3.75-.2.2-.45.3-.75.3ZM6.025 9l1.65-1.65L7.25 5H5.025c.083.683.2 1.358.35 2.025.15.667.367 1.325.65 1.975Zm8.95 8.95c.65.283 1.313.508 1.988.675.675.167 1.354.275 2.037.325v-2.2l-2.35-.475-1.675 1.675Z" fill="#F8F8F8"/></svg>
